X: 5
T: The Swallowtail
R: jig
M: 6/8
L: 1/8
K: Ador
cAA EAA | cAc edc | BGG DGG | BG/A/B d2 B |cAA E2 A | cA/B/c e2 f | gfg dcB | cA^G A2 :|ef^g a2 b | a2 b age | efg a2 b | age g3 |ee/f/^g a2 b | a2 b age | gfg d2 B | cA^G A2 :|


Tune 106	Setting 106

